public/icons/logout.svg

<svg width="25" height="24" viewBox="0 0 25 24" fill="none" xmlns="http://www.w3.org/2000/svg">
<path fill-rule="evenodd" clip-rule="evenodd" d="M5.91629 4C5.65107 4 5.39672 4.10536 5.20918 4.29289C5.02165 4.48043 4.91629 4.73478 4.91629 5V19C4.91629 19.2652 5.02165 19.5196 5.20918 19.7071C5.39672 19.8946 5.65107 20 5.91629 20H9.91629C10.4686 20 10.9163 20.4477 10.9163 21C10.9163 21.5523 10.4686 22 9.91629 22H5.91629C5.12064 22 4.35758 21.6839 3.79497 21.1213C3.23236 20.5587 2.91629 19.7957 2.91629 19V5C2.91629 4.20435 3.23236 3.44129 3.79497 2.87868C4.35758 2.31607 5.12064 2 5.91629 2H9.91629C10.4686 2 10.9163 2.44772 10.9163 3C10.9163 3.55228 10.4686 4 9.91629 4H5.91629ZM16.2092 6.29289C16.5997 5.90237 17.2329 5.90237 17.6234 6.29289L22.6234 11.2929C23.0139 11.6834 23.0139 12.3166 22.6234 12.7071L17.6234 17.7071C17.2329 18.0976 16.5997 18.0976 16.2092 17.7071C15.8187 17.3166 15.8187 16.6834 16.2092 16.2929L19.5021 13H9.91629C9.36401 13 8.91629 12.5523 8.91629 12C8.91629 11.4477 9.36401 11 9.91629 11H19.5021L16.2092 7.70711C15.8187 7.31658 15.8187 6.68342 16.2092 6.29289Z" fill="#19191B"/>
</svg>

<svg xmlns="http://www.w3.org/2000/svg" width="25" height="24" fill="none"><path fill="#19191B" fill-rule="evenodd" d="M5.916 4a1 1 0 0 0-1 1v14a1 1 0 0 0 1 1h4a1 1 0 1 1 0 2h-4a3 3 0 0 1-3-3V5a3 3 0 0 1 3-3h4a1 1 0 1 1 0 2h-4ZM16.21 6.293a1 1 0 0 1 1.414 0l5 5a1 1 0 0 1 0 1.414l-5 5a1 1 0 0 1-1.414-1.414L19.502 13H9.916a1 1 0 1 1 0-2h9.586L16.21 7.707a1 1 0 0 1 0-1.414Z" clip-rule="evenodd"/></svg>
